!!!COM: Corelli, Arcangelo
!!!OTL: Sonate a tre [in D]
!!!XEN: Trio Sonata Opus 1, No. 12
!!!OPS: Opus 1
!!!ONM: No. 12
!!!OMV: Movement 4.
!!!YEC: Copyright 1994, Center for Computer Assisted Research in the Humanities
!!!YEM: Rights to all derivative electronic formats reserved.
!!!YEM: Refer to licensing agreement for further details.
!! For the following instrumentation: Violino I & II, Violone/Archlute,
!!    and Organo.
!! Allegro.
**kern	**kern	**kern	**kern
*ICklav	*ICstr	*ICstr	*ICstr
*Iorgan	*Icello	*Ivioln	*Ivioln
*	*Iarchl	*	*
!Organo	!Violone	!Violin 2	!Violin 1
!	! or	!	!
!	!Archlute	!	!
*>[A,A]	*>[A,A]	*>[A,A]	*>[A,A]
*>A	*>A	*>A	*>A
*clefF4	*clefF4	*clefG2	*clefG2
*k[f#c#]	*k[f#c#]	*k[f#c#]	*k[f#c#]
*D:	*D:	*D:	*D:
*M6/8	*M6/8	*M6/8	*M6/8
*MM66	*MM66	*MM66	*MM66
=1-	=1-	=1-	=1-
4D\	2.r	2.r	8r
.	.	.	8dd\L
8E\	.	.	8dd\J
8F#\	.	.	8a\L
4G\	.	.	8b\
.	.	.	8b\J
=2	=2	=2	=2
8D\	2.r	2.r	8f#/L
[4d\	.	.	16b/L
.	.	.	16a/
.	.	.	16g/
.	.	.	16f#/JJ
8d\]	.	.	8e/L
4c#\	.	.	16a/L
.	.	.	16g/
.	.	.	16f#/
.	.	.	16e/JJ
=3	=3	=3	=3
4.B\	2.r	2.r	8d\L
.	.	.	8dd\
.	.	.	8dd\J
8A\	.	.	8dd\L
4AA/	.	.	8ee\
.	.	.	16dd\L
.	.	.	16ee\JJ
=4	=4	=4	=4
8.D\L	2.r	8r	8ff#\L
.	.	8aa\L	8ff#\
16E\L	.	.	.
16F#\	.	8aa\J	8ff#\J
16G#\JJ	.	.	.
8A\	.	8ee\L	8cc#\L
[4A\	.	8ff#\	8dd\
.	.	8ff#\J	8dd\J
=5	=5	=5	=5
8A\]	2.r	8cc#\L	8a/
4D\	.	16ff#\L	[4aa\
.	.	16ee\	.
.	.	16dd\	.
.	.	16cc#\JJ	.
8E\	.	8b\L	8aa\]
4EE/	.	16ee\L	4gg#\
.	.	16dd\	.
.	.	16cc#\	.
.	.	16b\JJ	.
=6	=6	=6	=6
8AA/	2.r	8a\L	8aa\L
4A\	.	8cc#\	8a\
.	.	8cc#\J	8a\J
8G\	.	8dd\L	8b\L
4G\	.	8ee\	8cc#\
.	.	16dd\L	16b\L
.	.	16ee\JJ	16cc#\JJ
=7	=7	=7	=7
8F#\	8r	8ff#\L	8dd\L
4d\	8d\L	8a\	8ff#\
.	8d\J	8dd\J	8ff#\J
8A\	8A\L	8cc#\L	8ee\L
4B\	8B\	16b\L	16dd\L
.	.	16a\	16cc#\
.	8B\J	16b\	16dd\
.	.	16cc#\JJ	16ee\JJ
=8	=8	=8	=8
8F#\	8F#\L	8dd\L	8a/
4D\	16B\L	8ff#\	[4dd\
.	16A\	.	.
.	16G\	8bb\J	.
.	16F#\JJ	.	.
8E\	8E\L	8gg\L	8dd\]
4AA/	16A\L	8ee\	4cc#\
.	16G\	.	.
.	16F#\	8aa\J	.
.	16E\JJ	.	.
=9	=9	=9	=9
4D\	4D\	8ff#\L	8dd\
.	.	16dd\L	[4bb\
.	.	16ee\	.
8D\	8D\	16ff#\	.
.	.	16gg\JJ	.
4C#/	4C#/	8ee\L	8bb\]
.	.	16cc#\L	[4aa\
.	.	16dd\	.
8C#/	8C#/	16ee\	.
.	.	16ff#\JJ	.
=10	=10	=10	=10
4BB/	4BB/	8dd\L	8aa\]
.	.	16b\L	4gg#\
.	.	16cc#\	.
8BB/	8BB/	16dd\	.
.	.	16ee\JJ	.
4AA/	4AA/	8cc#\	8aa\L
.	.	[4ff#\	16aa\L
.	.	.	16bb\
8A\	8A\	.	16ccc#\
.	.	.	16ddd\JJ
=11	=11	=11	=11
4G\	4G\	8ff#\]	8bb\L
.	.	[4ee\	16gg\L
.	.	.	16aa\
8G\	8G\	.	16bb\
.	.	.	16ccc#\JJ
4F#\	4F#\	8ee\]	8aa\L
.	.	[4dd\	16ff#\L
.	.	.	16gg\
8F#\	8F#\	.	16aa\
.	.	.	16bb\JJ
=12	=12	=12	=12
4E\	4E\	8dd\]	8gg\L
.	.	4cc#\	16ee\L
.	.	.	16ff#\
8E\	8E\	.	16gg\
.	.	.	16aa\JJ
8D\	8D\L	4dd\	8ff#\
4D\	16d\L	.	[4bb\
.	16e\	.	.
.	16f#\	8r	.
.	16g\JJ	.	.
=13	=13	=13	=13
8E\	8e\L	4.ccc#\	8bb\]
4C#/	16c#\L	.	[4aa\
.	16d\	.	.
.	16e\	.	.
.	16f#\JJ	.	.
8D\	8d\L	4.bb\	8aa\]
4E\	16B\L	.	4gg#\
.	16c#\	.	.
.	16d\	.	.
.	16e\JJ	.	.
=14	=14	=14	=14
4AA/	8c#\L	4aa\	8r
.	8AA\	.	8aa\L
8BB/	8BB\J	8r	8aa\J
8C#/	8C#/	4.r	8ee\L
4D\	4D\	.	8ff#\
.	.	.	8ff#\J
=15	=15	=15	=15
8AA/	8AA/	2.r	8cc#\L
[4A\	[4A\	.	16ff#\L
.	.	.	16ee\
.	.	.	16dd\
.	.	.	16cc#\JJ
8A\]	8A\]	.	8b\L
4G#\	4G#\	.	16ee\L
.	.	.	16dd\
.	.	.	16cc#\
.	.	.	16b\JJ
=16	=16	=16	=16
4A\	4A\	8r	8cc#\
.	.	16a\LL	[4ff#\
.	.	16b\	.
8A\	8A\	16cc#\	.
.	.	16dd\JJ	.
4G\	4G\	8b/L	8ff#\]
.	.	16g/L	[4ee\
.	.	16a/	.
8G\	8G\	16b/	.
.	.	16cc#/JJ	.
=17	=17	=17	=17
4F#\	4F#\	8a/L	8ee\]
.	.	16f#/L	[4dd\
.	.	16g/	.
8F#\	8F#\	16a/	.
.	.	16b/JJ	.
4E\	4E\	8g/L	8dd\]
.	.	16e/L	4cc#\
.	.	16f#/	.
8E\	8E\	16g/	.
.	.	16a/JJ	.
=18	=18	=18	=18
4D\	4D\	8f#\L	8dd\L
.	.	(16aa\L	(16ff#\L
.	.	16gg\J)	16ee\J)
8r	8r	8aa\J	8ff#\J
4.r	4.r	8ee\L	8cc#\L
.	.	(16ff#\L	(16dd\L
.	.	16ee\J)	16cc#\J)
.	.	8ff#\J	8dd\J
=19	=19	=19	=19
2.r	2.r	8cc#\L	8a\L
.	.	(16ff#\L	(16dd\L
.	.	16ee\J)	16cc#\J)
.	.	8ff#\J	8dd\J
.	.	8cc#\L	8a/L
.	.	(16dd\L	(16b/L
.	.	16cc#\J)	16a/J)
.	.	8dd\J	8b/J
=20	=20	=20	=20
8.D\L	8.D\L	8.a/L	8.f#/L
16E\kk	16E\kk	16g/kk	16g/kk
8F#\J	8F#\J	8f#/J	8a/J
8G\L	8G\L	8d/L	8b\
8A\	8A\	8.d/	4e/
8AA\J	8AA\J	.	.
.	.	16c#/Jk	.
=21	=21	=21	=21
4D\	4D\	8d/	8d\L
.	.	[4bb\	16dd\L
.	.	.	16ee\
8d\	8d\	.	16ff#\
.	.	.	16gg\JJ
4c#\	4c#\	8bb\]	8ee\L
.	.	[4aa\	16cc#\L
.	.	.	16dd\
8c#\	8c#\	.	16ee\
.	.	.	16ff#\JJ
=22	=22	=22	=22
4B\	4B\	8aa\]	8dd\L
.	.	4gg#\	16b\L
.	.	.	16cc#\
8B\	8B\	.	16dd\
.	.	.	16ee\JJ
8A\L	8A\L	8aa\L	8cc#\
16B\L	16B\L	16ddd\L	[4ff#\
16A\	16A\	16ccc#\	.
16G\	16G\	16bb\	.
16F#\JJ	16F#\JJ	16aa\JJ	.
=23	=23	=23	=23
4G\	4G\	8bb\L	8ff#\]
.	.	16ccc\L	[4ee\
.	.	16bb\	.
16F#\LL	16F#\LL	16aa\	.
16E\JJ	16E\JJ	16gg\JJ	.
4F#\	4F#\	8aa\L	8ee\]
.	.	16bb\L	[4dd\
.	.	16aa\	.
16E\LL	16E\LL	16gg\	.
16D\JJ	16D\JJ	16ff#\JJ	.
=24	=24	=24	=24
4E\	4E\	8gg\L	8dd\]
.	.	16aa\L	4cc#\
.	.	16gg\	.
8E\	8E\	16ff#\	.
.	.	16ee\JJ	.
8D\	8D\L	8ff#\	4dd\
4F#\	16F#\L	[4dd\	.
.	16G\	.	.
.	16A\	.	8ff#\
.	16B\JJ	.	.
=25	=25	=25	=25
8G\	8G\L	8dd\]	4ee\
4E\	16E\L	[4cc#\	.
.	16F#\	.	.
.	16G\	.	8ee\
.	16A\JJ	.	.
8F#\	8F#\L	8cc#\]	4dd\
4D\	16D\L	[4b\	.
.	16E\	.	.
.	16F#\	.	8dd\
.	16G\JJ	.	.
=26	=26	=26	=26
8E/L	8E/L	8b\]	4cc#\
8F#/	8F#/	4a#/	.
8FF#/J	8FF#/J	.	8cc#\
8BB/	8BB\L	4b\	8b\
4D\	16d\L	.	[4bb\
.	16e\	.	.
.	16f#\	8r	.
.	16g\JJ	.	.
=27	=27	=27	=27
8E\	8e\L	4ccc#\	8bb\]
4C#/	16c#\L	.	[4aa\
.	16d\	.	.
.	16e\	8ccc#\	.
.	16f#\JJ	.	.
8D\	8d\L	4bb\	8aa\]
4BB/	16B\L	.	[4gg\
.	16c#\	.	.
.	16d\	8bb\	.
.	16e\JJ	.	.
=28	=28	=28	=28
8C#/	8c#\L	4aa\	8gg\]
4A\	16A\L	.	[4ff#\
.	16B\	.	.
.	16c#\	8aa\	.
.	16d\JJ	.	.
8B\	8B\L	4gg\	8ff#\]
4G\	16G\L	.	[4ee\
.	16A\	.	.
.	16B\	8gg\	.
.	16c#\JJ	.	.
=29	=29	=29	=29
8A\	8A\L	4ff#\	8ee\]
4F#\	16F#\L	.	[4dd\
.	16G\	.	.
.	16A\	8ff#\	.
.	16B\JJ	.	.
8G\	8G\L	4ee\	8dd\]
4E\	16E\L	.	4cc#\
.	16F#\	.	.
.	16G\	8ee\	.
.	16A\JJ	.	.
=30	=30	=30	=30
8F#\	8F#\L	4dd\	8dd\L
4d\	8d\	.	8ff#\
.	8d\J	8r	8ff#\J
8A\	8A\L	4.r	8cc#\L
4B\	8B\	.	8dd\
.	8B\J	.	8dd\J
=31	=31	=31	=31
8F#\	8F#\	8r	4a/
4F#\	4F#\	8aa\L	.
.	.	8aa\J	8r
8C#/	8C#/	8ee\L	4.r
4D\	4D\	8ff#\	.
.	.	8ff#\J	.
=32	=32	=32	=32
8AA/	8AA/	8cc#\L	8r
8r	8r	8ff#\	8ddd\L
8r	8r	8ff#\J	8ddd\J
4.r	4.r	8cc#\L	8aa\L
.	.	8dd\	8bb\
.	.	8dd\J	8bb\J
=33	=33	=33	=33
8.D\L	8.D\L	8.a/L	8.ff#\L
16E\kk	16E\kk	16g/kk	16gg\kk
8F#\J	8F#\J	8f#/J	8aa\J
8G\L	8G\L	8d/L	8bb\
8A\	8A\	8.d/	4ee\
8AA\J	8AA\J	.	.
.	.	16c#/Jk	.
=34	=34	=34	=34
4D\	4D\	8d\L	8dd\L
.	.	8dd\	8ff#\
8r	8r	8dd\J	8ff#\J
8r	8r	4b\	4dd\
8G\L	8G\L	.	.
8G\J	8G\J	8r	8r
=35	=35	=35	=35
4E\	4E\	8r	8r
.	.	(16ee\LL	(16gg\LL
.	.	16dd\J)	16ff#\J)
8r	8r	8ee\J	8gg\J
8r	8r	4cc#\	4ee\
16A\LL	16A\LL	.	.
16G\J	16G\J	.	.
8A\J	8A\J	8r	8r
=36	=36	=36	=36
4F#\	4F#\	8r	8r
.	.	8ff#\L	8aa\L
8r	8r	8ff#\J	8aa\J
8r	8r	8dd\L	8ff#\L
8D\L	8D\L	8aa\	16ff#\L
.	.	.	16ee\
8D\J	8D\J	8bb\J	16dd\
.	.	.	16cc#\JJ
=37	=37	=37	=37
4E\	4E\	(8gg#\L	8b/L
.	.	8ee\)	16cc#/L
.	.	.	16b/
8C#/	8C#/	8ee\J	16a/
.	.	.	16g#/JJ
4F#\	4F#\	(8ee\L	8a/L
.	.	8dd\)	16b/L
.	.	.	16a/
(16E\LL	(16E\LL	8dd\J	16g#/
16D\JJ)	16D\JJ)	.	16f#/JJ
=38	=38	=38	=38
4E\	4E\	(8dd\L	8g#/L
.	.	8cc#\)	16a/L
.	.	.	16g#/
(16D/LL	(16D/LL	8cc#\J	16f#/
16C#/JJ)	16C#/JJ)	.	16e/JJ
4D\	4D\	(8cc#\L	8f#/L
.	.	8b\)	16g#/L
.	.	.	16f#/
(16C#/LL	(16C#/LL	8b\J	16e/
16BB/JJ)	16BB/JJ)	.	16d/JJ
=39	=39	=39	=39
4C#/	4C#/	(8b\L	4e/
.	.	8a\)	.
8C#/	8C#/	8ee\J	[8a/
8D/L	8D/L	16dd\LL	8a/L]
.	.	16cc#\J	.
8E/	8E/	8.b\	8.a/
8EE/J	8EE/J	.	.
.	.	16b\Jk	16g#/Jk
=40	=40	=40	=40
4AA/	4AA/	8a/L	8a\L
.	.	16cc#/L	16ee\L
.	.	16b/	16dd\
8r	8r	16a/	16cc#\
.	.	16g#/JJ	16b\JJ
8r	8r	4a/	4cc#\
16A\LL	16A\LL	.	.
16G\	16G\	.	.
16F#\	16F#\	8r	8r
16E\JJ	16E\JJ	.	.
=41	=41	=41	=41
4F#\	4F#\	8r	8r
.	.	16dd\LL	16ff#\LL
.	.	16cc#\	16ee\
8r	8r	16b\	16dd\
.	.	16a\JJ	16cc#\JJ
8r	8r	4b\	4dd\
16B\LL	16B\LL	.	.
16A\	16A\	.	.
16G\	16G\	8r	8r
16F#\JJ	16F#\JJ	.	.
=42	=42	=42	=42
8G\	8G\	8r	8r
4E\	4E\	16ee\LL	16gg\LL
.	.	16dd\	16ff#\
.	.	16cc#\	16ee\
.	.	16b\JJ	16dd\JJ
4A\	4A\	4cc#\	8ee\L
.	.	.	8aa\
8r	8r	8r	8aa\J
=43	=43	=43	=43
2.r	2.r	8r	8ee\L
.	.	8aa\L	8ff#\
.	.	8aa\J	8ff#\J
.	.	4ee\	8cc#\L
.	.	.	8ddd\
.	.	8r	8ddd\J
=44	=44	=44	=44
4.r	4.r	8r	8aa\L
.	.	8ddd\L	8bb\
.	.	8ddd\J	8bb\J
8D\L	8D\L	8aa\L	8ff#\L
8F#\	8F#\	8aa\	8ff#\
8G\J	8G\J	8aa\J	8ff#\J
=45	=45	=45	=45
8A\	8A\	8ee\L	8cc#\L
4A\	4A\	8ff#\	8dd\
.	.	8ff#\J	8dd\J
4AA/	4AA/	8cc#\L	4a/
.	.	16ff#\L	.
.	.	16ee\	.
8F#\	8F#\	16dd\	8aa\
.	.	16cc#\JJ	.
=46	=46	=46	=46
4B\	4B\	8dd\L	(8aa\L
.	.	16ee\L	8gg\)
.	.	16dd\	.
16A\LL	16A\LL	16cc#\	8gg\J
16G\JJ	16G\JJ	16b\JJ	.
4A\	4A\	8cc#\L	(8gg\L
.	.	16dd\L	8ff#\)
.	.	16cc#\	.
16G\LL	16G\LL	16b\	8ff#\J
16F#\JJ	16F#\JJ	16a\JJ	.
=47	=47	=47	=47
4G\	4G\	8b/L	(8ff#\L
.	.	16cc#/L	8ee\)
.	.	16b/	.
16F#\LL	16F#\LL	16a/	8ee\J
16E\JJ	16E\JJ	16g/JJ	.
4F#\	4F#\	4a/	(8ee\L
.	.	.	8dd\)
8F#\	8F#\	8dd\	8aa\J
=48	=48	=48	=48
8G\L	8G\L	4dd\	16gg\LL
.	.	.	16ff#\J
8A\	8A\	.	8.ee\
8AA\J	8AA\J	8cc#\	.
.	.	.	16ee\Jk
4D\	4D\	8dd\	8dd\L
.	.	[4bb\	16dd\L
.	.	.	16ee\
8d\	8d\	.	16ff#\
.	.	.	16gg\JJ
=49	=49	=49	=49
4c#\	4c#\	8bb\]	8ee\L
.	.	[4aa\	16cc#\L
.	.	.	16dd\
8c#\	8c#\	.	16ee\
.	.	.	16ff#\JJ
4B\	4B\	8aa\]	8dd\L
.	.	4gg#\	16b\L
.	.	.	16cc#\
8B\	8B\	.	16dd\
.	.	.	16ee\JJ
=50	=50	=50	=50
4A\	4A\	8aa\L	8cc#\
.	.	16a\L	[4ff#\
.	.	16b\	.
8A\	8A\	16cc#\	.
.	.	16dd\JJ	.
4G\	4G\	8b/L	8ff#\]
.	.	16g/L	[4ee\
.	.	16a/	.
8G\	8G\	16b/	.
.	.	16cc#/JJ	.
=51	=51	=51	=51
4F#\	4F#\	8a\L	8ee\]
.	.	16ff#\L	[4dd\
.	.	16gg\	.
8F#\	8F#\	16aa\	.
.	.	16bb\JJ	.
4E\	4E\	8gg\L	8dd\]
.	.	16ee\L	[4cc#\
.	.	16ff#\	.
8E\	8E\	16gg\	.
.	.	16aa\JJ	.
=52	=52	=52	=52
4D\	4D\	8ff#\L	8cc#\]
.	.	16dd\L	[4b\
.	.	16ee\	.
8D\	8D\	16ff#\	.
.	.	16gg\JJ	.
4C#/	4C#/	8ee\L	8b\]
.	.	16cc#\L	4a#/
.	.	16dd\	.
8C#/	8C#/	16ee\	.
.	.	16ff#\JJ	.
=53	=53	=53	=53
8BB/	8BB\L	4.dd\	8b\
4G\	16G\L	.	[4bb\
.	16F#\	.	.
.	16E\	.	.
.	16D\JJ	.	.
8E\	8E\L	4.ccc#\	8bb\]
4F#\	16F#\L	.	[4aa\
.	16E\	.	.
.	16D\	.	.
.	16C#\JJ	.	.
=54	=54	=54	=54
8D\	8D/L	4.bb\	8aa\]
4E\	16E/L	.	[4gg\
.	16D/	.	.
.	16C#/	.	.
.	16BB/JJ	.	.
8C#/	8C#\L	4.aa\	8gg\]
4D\	16d\L	.	[4ff#\
.	16c#\	.	.
.	16B\	.	.
.	16A\JJ	.	.
=55	=55	=55	=55
8BB/	8B\L	4.gg\	8ff#\]
4C#/	16c#\L	.	[4ee\
.	16B\	.	.
.	16A\	.	.
.	16G\JJ	.	.
8AA/	8A\L	4.ff#\	8ee\]
4BB/	16B\L	.	[4dd\
.	16A\	.	.
.	16G\	.	.
.	16F#\JJ	.	.
=56	=56	=56	=56
8GG/	8G\L	4.ee\	8dd\]
4AA/	8A\	.	4cc#\
.	8AA\J	.	.
4D\	4D\	4dd\	8dd\L
.	.	.	16aa\L
.	.	.	16gg\
8r	8r	8r	16ff#\
.	.	.	16ee\JJ
=57	=57	=57	=57
2.r	2.r	4.r	8dd\L
.	.	.	16gg\L
.	.	.	16ff#\
.	.	.	16ee\
.	.	.	16dd\JJ
.	.	8r	8cc#\L
.	.	16aa\LL	16ff#\L
.	.	16gg\	16ee\
.	.	16ff#\	16dd\
.	.	16ee\JJ	16cc#\JJ
=58	=58	=58	=58
4.r	4.r	8dd\L	8b\L
.	.	16gg\L	16ee\L
.	.	16ff#\	16dd\
.	.	16ee\	16cc#\
.	.	16dd\JJ	16b\JJ
8r	8r	8cc#\L	8a/
4A\	16A\LL	8a\	[4ff#\
.	16B\	.	.
.	16c#\	8aa\J	.
.	16d\JJ	.	.
=59	=59	=59	=59
8B\	8B\L	4gg\	8ff#\]
4G\	16G\L	.	[4ee\
.	16A\	.	.
.	16B\	8gg\	.
.	16c#\JJ	.	.
8A\	8A\L	4ff#\	8ee\]
4F#\	16F#\L	.	[4dd\
.	16G\	.	.
.	16A\	8ff#\	.
.	16B\JJ	.	.
=60	=60	=60	=60
8G\L	8G\L	4ee\	8dd\]
8A\	8A\	.	4cc#\
8AA\J	8AA\J	8ee\	.
8D\	8D\L	8dd\	8dd\
4A\	16A\L	8r	[4ff#\
.	16B\	.	.
.	16c#\	8aa\	.
.	16d\JJ	.	.
=61	=61	=61	=61
8B\	8B\L	4gg\	8ff#\]
4G\	16G\L	.	[4ee\
.	16A\	.	.
.	16B\	8gg\	.
.	16c#\JJ	.	.
8A\	8A\L	4ff#\	8ee\]
4F#\	16F#\L	.	[4dd\
.	16G\	.	.
.	16A\	8ff#\	.
.	16B\JJ	.	.
=62	=62	=62	=62
8G\L	8G\L	4ee\	8dd\]
8A\	8A\	.	4cc#\
8AA\J	8AA\J	8ee\	.
4D\	4D\	4dd\	4dd\
8r	8r	8r	8r
==	==	==	==
*-	*-	*-	*-
!!!CDT: 1653/2/17/-1713/1/8
!!!OCY: Italia
!!!ODE: Queen Christina Alexandra of Sweden
!!!ODT: 1681//
!!!OPC: Roma; Rome
!!!AGN: trio sonata
!!!AST: baroque, chamber
!!!AMT: compound duple
!!!YOR1: J. Joachim & F. Chrysander (eds.) Les Oeuvre de Arcangelo Corelli
!!!YOR2: London: Augener & Co. 1871
!!!YOY: 1871
!!!AIN: archl cello organ violn
!!!EEV: 1.1
!!!RDT: 1993 September 17
!!!YER: 1994 December 14
!!!EMD: 1996 July 9
!!!YEN: United States of America
!!!EFL: 4/4
!!!ENC: Frances Bennion & Steven Rasmussen
!!!EED: W.B. Hewlett
!!!VTS: 3701491295
